exported-svg/activity.svg

<svg height="24" viewBox="0 0 24 24" width="24" xmlns="http://www.w3.org/2000/svg"><path d="m15.5 19.9188612-5.52565835-16.57697508c-.15194939-.45584816-.79673391-.45584816-.9486833 0l-2.88603796 8.65811388h-3.63962039c-.27614237 0-.5.2238576-.5.5s.22385763.5.5.5h4c.2152152 0 .40628463-.137715.47434165-.3418861l2.52565835-7.57697507 5.5256584 16.57697507c.1519493.4558481.7967339.4558481.9486832 0l2.886038-8.6581139h3.6396204c.2761424 0 .5-.2238576.5-.5s-.2238576-.5-.5-.5h-4c-.2152152 0-.4062846.137715-.4743416.3418861z"/></svg>

<?xml version="1.0" encoding="UTF-8"?>
<svg width="24px" height="24px" viewBox="0 0 24 24" version="1.1" xmlns="http://www.w3.org/2000/svg" xmlns:xlink="http://www.w3.org/1999/xlink">
    <!-- Generator: Sketch 55.2 (78181) - https://sketchapp.com -->
    <title>activity</title>
    <desc>Created with Sketch.</desc>
    <g id="activity" stroke="none" stroke-width="1" fill="none" fill-rule="evenodd">
        <path d="M15.5,19.9188612 L9.97434165,3.34188612 C9.82239226,2.88603796 9.17760774,2.88603796 9.02565835,3.34188612 L6.13962039,12 L2.5,12 C2.22385763,12 2,12.2238576 2,12.5 C2,12.7761424 2.22385763,13 2.5,13 L6.5,13 C6.7152152,13 6.90628463,12.862285 6.97434165,12.6581139 L9.5,5.08113883 L15.0256584,21.6581139 C15.1776077,22.113962 15.8223923,22.113962 15.9743416,21.6581139 L18.8603796,13 L22.5,13 C22.7761424,13 23,12.7761424 23,12.5 C23,12.2238576 22.7761424,12 22.5,12 L18.5,12 C18.2847848,12 18.0937154,12.137715 18.0256584,12.3418861 L15.5,19.9188612 Z" id="Shape" fill="#000000" fill-rule="nonzero"></path>
    </g>
</svg>
